; generated by Slic3r Prusa Edition 1.38.5-prusa3d-win32 on 2018-01-28 at 13:25:31

; 

; external perimeters extrusion width = 0.68mm
; perimeters extrusion width = 0.68mm
; infill extrusion width = 0.68mm
; solid infill extrusion width = 0.68mm
; top infill extrusion width = 0.60mm
; support material extrusion width = 0.60mm
; first layer extrusion width = 0.40mm

M107
M190 S95 ; set bed temperature and wait for it to be reached
M104 S255 ; set temperature
G28 ; home all axes
G1 Z5 F5000 ; lift nozzle
; Filament gcode
M109 S255 ; set temperature and wait for it to be reached
G21 ; set units to millimeters
G90 ; use absolute coordinates
M82 ; use absolute distances for extrusion
G92 E0
G1 Z0.200 F7800.000
G1 E-6.00000 F2400.00000
G92 E0
G1 Z0.700 F7800.000
G1 X54.870 Y60.313 F7800.000
G1 Z0.200 F7800.000
G1 E6.00000 F2400.00000
G1 F1200
G1 X55.999 Y59.370 E6.04367
G1 X57.394 Y58.578 E6.09132
G1 X58.302 Y58.219 E6.12028
G1 X59.243 Y57.975 E6.14914
G1 X60.773 Y57.796 E6.19488
G1 X119.006 Y57.791 E7.92390
G1 X120.477 Y57.918 E7.96774
G1 X122.007 Y58.331 E8.01480
G1 X123.338 Y58.954 E8.05843
G1 X124.134 Y59.464 E8.08650
G1 X124.897 Y60.095 E8.11591
G1 X125.965 Y61.270 E8.16305
G1 X126.747 Y62.515 E8.20670
G1 X127.310 Y63.883 E8.25062
G1 X127.642 Y65.400 E8.29672
G1 X127.714 Y66.429 E8.32734
G1 X127.988 Y91.628 E9.07557
G1 X127.987 Y118.682 E9.87886
G1 X127.856 Y119.771 E9.91143
G1 X127.519 Y120.815 E9.94399
G1 X126.989 Y121.775 E9.97656
G1 X126.285 Y122.617 E10.00912
G1 X125.453 Y123.295 E10.04099
G1 X124.504 Y123.808 E10.07303
G1 X123.475 Y124.133 E10.10507
G1 X122.409 Y124.259 E10.13693
G1 X57.280 Y124.261 E12.07071
G1 X56.159 Y124.149 E12.10415
G1 X55.077 Y123.817 E12.13776
G1 X54.082 Y123.278 E12.17137
G1 X53.212 Y122.553 E12.20498
G1 X52.554 Y121.750 E12.23580
G1 X52.053 Y120.841 E12.26662
G1 X51.724 Y119.857 E12.29743
G1 X51.579 Y118.829 E12.32825
G1 X51.574 Y89.322 E13.20437
G1 X52.359 Y65.397 E13.91511
G1 X52.678 Y63.922 E13.95991
G1 X53.203 Y62.615 E14.00173
G1 X53.943 Y61.393 E14.04417
G1 X54.811 Y60.381 E14.08375
G1 X55.082 Y60.614 F7800.000
G1 F1200
G1 X56.207 Y59.660 E14.12753
G1 X57.542 Y58.903 E14.17312
G1 X58.415 Y58.558 E14.20097
G1 X59.325 Y58.323 E14.22887
G1 X60.794 Y58.152 E14.27278
G1 X119.006 Y58.148 E16.00117
G1 X120.414 Y58.270 E16.04314
G1 X121.878 Y58.664 E16.08816
G1 X123.156 Y59.262 E16.13004
G1 X123.925 Y59.754 E16.15718
G1 X124.663 Y60.365 E16.18562
G1 X125.688 Y61.495 E16.23089
G1 X126.433 Y62.686 E16.27260
G1 X126.970 Y63.994 E16.31460
G1 X127.289 Y65.456 E16.35903
G1 X127.357 Y66.433 E16.38812
G1 X127.631 Y91.631 E17.13630
G1 X127.630 Y118.667 E17.93904
G1 X127.507 Y119.693 E17.96972
G1 X127.190 Y120.676 E18.00040
G1 X126.690 Y121.580 E18.03108
G1 X126.021 Y122.376 E18.06193
G1 X125.240 Y123.008 E18.09177
G1 X124.354 Y123.483 E18.12161
G1 X123.390 Y123.786 E18.15161
G1 X122.392 Y123.902 E18.18145
G1 X57.280 Y123.904 E20.11471
G1 X56.224 Y123.797 E20.14624
G1 X55.209 Y123.485 E20.17777
G1 X54.271 Y122.975 E20.20946
G1 X53.457 Y122.293 E20.24099
G1 X52.844 Y121.541 E20.26981
G1 X52.374 Y120.685 E20.29880
G1 X52.067 Y119.758 E20.32780
G1 X51.935 Y118.796 E20.35662
G1 X51.931 Y89.332 E21.23144
G1 X52.712 Y65.448 E21.94097
G1 X53.020 Y64.027 E21.98414
G1 X53.523 Y62.773 E22.02426
G1 X54.237 Y61.596 E22.06514
G1 X55.023 Y60.682 E22.10093
G1 E16.10093 F2400.00000
G92 E0
G1 Z0.700 F7800.000
G1 X53.894 Y86.838 F7800.000
G1 Z0.200 F7800.000
G1 E6.00000 F2400.00000
G1 F1200
G1 X53.895 Y66.381 E6.60741
G1 X53.965 Y65.498 E6.63371
G1 X54.238 Y64.322 E6.66954
G1 X54.696 Y63.227 E6.70478
G1 X55.321 Y62.234 E6.73964
G1 X56.119 Y61.340 E6.77519
G1 X56.993 Y60.636 E6.80853
G1 X57.773 Y60.174 E6.83544
G1 X58.608 Y59.813 E6.86243
G1 X59.727 Y59.514 E6.89682
G1 X60.913 Y59.399 E6.93223
G1 X119.103 Y59.400 E8.65994
G1 X120.313 Y59.521 E8.69607
G1 X121.195 Y59.747 E8.72308
G1 X122.041 Y60.082 E8.75011
G1 X123.046 Y60.664 E8.78458
G1 X123.946 Y61.403 E8.81917
G1 X124.777 Y62.368 E8.85696
G1 X125.420 Y63.458 E8.89455
G1 X125.812 Y64.480 E8.92706
G1 X126.013 Y65.361 E8.95388
G1 X126.099 Y66.245 E8.98027
G1 X126.099 Y89.624 E9.67440
G1 X126.262 Y89.923 E9.68452
G1 X126.559 Y91.090 E9.72027
G1 X126.559 Y118.945 E10.54731
G1 X126.400 Y119.795 E10.57299
G1 X126.054 Y120.596 E10.59889
G1 X125.108 Y121.707 E10.64223
G1 X124.091 Y122.343 E10.67784
G1 X123.314 Y122.595 E10.70208
G1 X122.143 Y122.641 E10.73687
G1 X121.874 Y122.671 E10.74491
G1 X111.926 Y122.658 E11.04029
G1 X110.543 Y122.672 E11.08134
G1 X110.271 Y122.641 E11.08948
G1 X109.997 Y122.641 E11.09760
G1 X109.733 Y122.671 E11.10551
G1 X105.497 Y122.658 E11.23127
G1 X104.146 Y122.671 E11.27139
G1 X86.922 Y122.658 E11.78280
G1 X68.396 Y122.671 E12.33285
G1 X68.134 Y122.641 E12.34068
G1 X67.862 Y122.641 E12.34876
G1 X67.595 Y122.671 E12.35673
G1 X64.782 Y122.658 E12.44025
G1 X57.687 Y122.671 E12.65091
G1 X57.442 Y122.644 E12.65822
G1 X56.515 Y122.631 E12.68577
G1 X55.571 Y122.390 E12.71470
G1 X54.655 Y121.873 E12.74592
G1 X53.921 Y121.169 E12.77611
G1 X53.297 Y120.161 E12.81130
G1 X53.001 Y119.007 E12.84669
G1 X53.001 Y89.061 E13.73581
G1 X53.265 Y87.900 E13.77118
G1 X53.639 Y87.163 E13.79572
G1 X53.838 Y86.909 E13.80530
G1 X54.251 Y86.838 F7800.000
G1 F1200
G1 X54.252 Y66.388 E14.41250
G1 X54.320 Y65.540 E14.43776
G1 X54.582 Y64.418 E14.47196
G1 X55.019 Y63.379 E14.50542
G1 X55.615 Y62.438 E14.53851
G1 X56.375 Y61.590 E14.57232
G1 X57.187 Y60.936 E14.60326
G1 X57.926 Y60.497 E14.62878
G1 X58.737 Y60.147 E14.65502
G1 X59.804 Y59.863 E14.68779
G1 X60.922 Y59.756 E14.72114
G1 X119.094 Y59.757 E16.44834
G1 X120.239 Y59.870 E16.48250
G1 X121.074 Y60.083 E16.50809
G1 X121.897 Y60.409 E16.53437
G1 X122.853 Y60.965 E16.56722
G1 X123.707 Y61.668 E16.60006
G1 X124.495 Y62.588 E16.63601
G1 X125.104 Y63.625 E16.67174
G1 X125.474 Y64.596 E16.70257
G1 X125.659 Y65.407 E16.72727
G1 X125.742 Y66.254 E16.75255
G1 X125.742 Y89.720 E17.44928
G1 X125.923 Y90.038 E17.46014
G1 X126.202 Y91.113 E17.49313
G1 X126.202 Y118.927 E18.31896
G1 X126.053 Y119.707 E18.34254
G1 X125.738 Y120.427 E18.36587
G1 X124.856 Y121.453 E18.40603
G1 X123.923 Y122.027 E18.43855
G1 X123.230 Y122.247 E18.46014
G1 X122.117 Y122.284 E18.49322
G1 X121.864 Y122.314 E18.50078
G1 X111.924 Y122.301 E18.79589
G1 X110.552 Y122.314 E18.83665
G1 X110.292 Y122.284 E18.84442
G1 X109.976 Y122.284 E18.85380
G1 X109.722 Y122.314 E18.86138
G1 X105.496 Y122.301 E18.98687
G1 X104.145 Y122.314 E19.02698
G1 X86.922 Y122.301 E19.53836
G1 X68.407 Y122.314 E20.08809
G1 X68.156 Y122.284 E20.09560
G1 X67.840 Y122.284 E20.10497
G1 X67.585 Y122.314 E20.11259
G1 X64.783 Y122.301 E20.19581
G1 X57.697 Y122.314 E20.40618
G1 X57.464 Y122.287 E20.41314
G1 X56.580 Y122.279 E20.43941
G1 X55.723 Y122.066 E20.46563
G1 X54.886 Y121.599 E20.49410
G1 X54.185 Y120.927 E20.52290
G1 X53.616 Y119.998 E20.55526
G1 X53.358 Y118.985 E20.58631
G1 X53.358 Y89.081 E21.47419
G1 X53.593 Y88.041 E21.50583
G1 X53.949 Y87.342 E21.52914
G1 X54.251 Y86.964 E21.54349
G1 X54.251 Y86.928 E21.54457
G1 X54.608 Y87.093 F7800.000
G1 F1200
G1 X54.610 Y66.395 E22.15911
G1 X54.675 Y65.581 E22.18334
G1 X54.917 Y64.542 E22.21504
G1 X55.329 Y63.557 E22.24674
G1 X55.891 Y62.664 E22.27807
G1 X56.611 Y61.858 E22.31015
G1 X57.380 Y61.237 E22.33951
G1 X58.098 Y60.810 E22.36429
G1 X58.866 Y60.480 E22.38911
G1 X59.880 Y60.212 E22.42027
G1 X60.930 Y60.113 E22.45158
G1 X119.085 Y60.114 E24.17827
G1 X120.164 Y60.220 E24.21045
G1 X120.974 Y60.426 E24.23529
G1 X121.752 Y60.736 E24.26014
G1 X122.661 Y61.266 E24.29137
G1 X123.467 Y61.934 E24.32246
G1 X124.196 Y62.783 E24.35568
G1 X124.776 Y63.767 E24.38962
G1 X125.128 Y64.688 E24.41887
G1 X125.308 Y65.475 E24.44285
G1 X125.385 Y66.280 E24.46686
G1 X125.385 Y89.820 E25.16580
G1 X125.585 Y90.156 E25.17740
G1 X125.845 Y91.137 E25.20754
G1 X125.845 Y118.911 E26.03218
G1 X125.718 Y119.582 E26.05248
G1 X125.422 Y120.259 E26.07440
G1 X124.606 Y121.196 E26.11131
G1 X123.758 Y121.709 E26.14072
G1 X123.149 Y121.899 E26.15966
G1 X122.090 Y121.928 E26.19111
G1 X121.853 Y121.957 E26.19821
G1 X111.923 Y121.944 E26.49304
G1 X110.560 Y121.957 E26.53350
G1 X110.314 Y121.927 E26.54086
G1 X109.953 Y121.927 E26.55158
G1 X109.712 Y121.957 E26.55880
G1 X105.495 Y121.944 E26.68402
G1 X104.145 Y121.957 E26.72410
G1 X86.922 Y121.944 E27.23547
G1 X68.418 Y121.957 E27.78486
G1 X68.179 Y121.927 E27.79204
G1 X67.818 Y121.927 E27.80275
G1 X67.575 Y121.957 E27.81001
G1 X64.783 Y121.944 E27.89290
G1 X57.708 Y121.957 E28.10297
G1 X57.487 Y121.930 E28.10960
G1 X56.642 Y121.927 E28.13467
G1 X55.875 Y121.742 E28.15810
G1 X55.081 Y121.298 E28.18512
G1 X54.450 Y120.687 E28.21120
G1 X53.954 Y119.882 E28.23927
G1 X53.715 Y118.961 E28.26751
G1 X53.715 Y89.101 E29.15411
G1 X53.922 Y88.183 E29.18203
G1 X54.258 Y87.521 E29.20408
G1 X54.551 Y87.162 E29.21784
G1 X54.965 Y87.093 F7800.000
G1 F1200
G1 X54.967 Y66.402 E29.83216
G1 X55.030 Y65.624 E29.85535
G1 X55.261 Y64.638 E29.88542
G1 X55.639 Y63.734 E29.91452
G1 X56.168 Y62.890 E29.94409
G1 X56.847 Y62.126 E29.97443
G1 X57.574 Y61.537 E30.00221
G1 X58.270 Y61.123 E30.02625
G1 X58.994 Y60.813 E30.04962
G1 X59.956 Y60.562 E30.07917
G1 X60.938 Y60.470 E30.10845
G1 X119.077 Y60.471 E31.83465
G1 X120.090 Y60.569 E31.86486
G1 X120.853 Y60.762 E31.88826
G1 X121.608 Y61.063 E31.91236
G1 X122.445 Y61.551 E31.94113
G1 X123.207 Y62.179 E31.97045
G1 X123.897 Y62.979 E32.00182
G1 X124.448 Y63.910 E32.03396
G1 X124.783 Y64.780 E32.06163
G1 X124.958 Y65.543 E32.08487
G1 X125.029 Y66.304 E32.10758
G1 X125.028 Y89.924 E32.80888
G1 X125.248 Y90.277 E32.82122
G1 X125.488 Y91.161 E32.84843
G1 X125.488 Y118.893 E33.67183
G1 X125.371 Y119.494 E33.68999
G1 X125.107 Y120.088 E33.70930
G1 X124.357 Y120.938 E33.74297
G1 X123.596 Y121.391 E33.76927
G1 X123.070 Y121.550 E33.78557
G1 X122.063 Y121.571 E33.81547
G1 X121.841 Y121.600 E33.82212
G1 X111.921 Y121.587 E34.11665
G1 X110.570 Y121.600 E34.15678
G1 X110.338 Y121.570 E34.16372
G1 X109.929 Y121.570 E34.17585
G1 X109.700 Y121.600 E34.18271
G1 X105.493 Y121.587 E34.30762
G1 X104.144 Y121.600 E34.34769
G1 X86.922 Y121.587 E34.85904
G1 X68.430 Y121.600 E35.40807
G1 X68.202 Y121.570 E35.41490
G1 X67.794 Y121.570 E35.42703
G1 X67.564 Y121.600 E35.43390
G1 X64.784 Y121.587 E35.51646
G1 X57.719 Y121.600 E35.72621
G1 X57.509 Y121.573 E35.73251
G1 X56.705 Y121.575 E35.75640
G1 X55.984 Y121.401 E35.77841
G1 X55.278 Y121.000 E35.80251
G1 X54.716 Y120.447 E35.82592
G1 X54.292 Y119.764 E35.84980
G1 X54.072 Y118.937 E35.87519
G1 X54.072 Y89.120 E36.76050
G1 X54.250 Y88.325 E36.78469
G1 X54.567 Y87.702 E36.80546
G1 X54.965 Y87.222 E36.82395
G1 X54.965 Y87.183 E36.82514
G1 X55.322 Y87.093 F7800.000
G1 F1200
G1 X55.324 Y66.410 E37.43924
G1 X55.384 Y65.666 E37.46139
G1 X55.597 Y64.761 E37.48899
G1 X55.950 Y63.910 E37.51636
G1 X56.446 Y63.115 E37.54417
G1 X57.085 Y62.393 E37.57278
G1 X57.768 Y61.837 E37.59896
G1 X58.422 Y61.447 E37.62156
G1 X59.122 Y61.147 E37.64417
G1 X60.004 Y60.916 E37.67125
G1 X60.947 Y60.827 E37.69936
G1 X119.068 Y60.828 E39.42506
G1 X120.015 Y60.919 E39.45331
G1 X120.754 Y61.105 E39.47594
G1 X121.462 Y61.389 E39.49858
G1 X122.252 Y61.851 E39.52574
G1 X122.967 Y62.444 E39.55333
G1 X123.615 Y63.199 E39.58288
G1 X124.121 Y64.053 E39.61234
G1 X124.438 Y64.873 E39.63844
G1 X124.603 Y65.588 E39.66024
G1 X124.673 Y66.329 E39.68235
G1 X124.671 Y90.033 E40.38612
G1 X124.912 Y90.402 E40.39921
G1 X125.131 Y91.186 E40.42340
G1 X125.131 Y118.875 E41.24551
G1 X125.025 Y119.402 E41.26149
G1 X124.794 Y119.915 E41.27818
G1 X124.111 Y120.678 E41.30860
G1 X123.436 Y121.070 E41.33176
G1 X122.994 Y121.200 E41.34544
G1 X122.036 Y121.214 E41.37389
G1 X121.829 Y121.243 E41.38011
G1 X111.920 Y121.229 E41.67432
G1 X110.580 Y121.243 E41.71409
G1 X110.363 Y121.213 E41.72060
G1 X109.904 Y121.213 E41.73423
G1 X109.688 Y121.243 E41.74070
G1 X86.922 Y121.229 E42.41666
G1 X68.443 Y121.243 E42.96532
G1 X68.228 Y121.213 E42.97177
G1 X67.769 Y121.213 E42.98541
G1 X67.553 Y121.243 E42.99188
G1 X64.784 Y121.229 E43.07408
G1 X57.732 Y121.243 E43.28348
G1 X57.532 Y121.216 E43.28947
G1 X56.763 Y121.222 E43.31229
G1 X56.135 Y121.076 E43.33145
G1 X55.511 Y120.728 E43.35266
G1 X54.981 Y120.207 E43.37472
G1 X54.629 Y119.644 E43.39445
G1 X54.429 Y118.913 E43.41694
G1 X54.429 Y89.140 E44.30095
G1 X54.579 Y88.467 E44.32142
G1 X54.876 Y87.882 E44.34088
G1 X55.322 Y87.354 E44.36142
G1 X55.322 Y87.183 E44.36650
G1 X55.679 Y87.552 F7800.000
G1 F1200
G1 X55.681 Y66.417 E44.99401
G1 X55.739 Y65.709 E45.01512
G1 X55.933 Y64.884 E45.04027
G1 X56.262 Y64.085 E45.06593
G1 X56.724 Y63.339 E45.09198
G1 X57.322 Y62.660 E45.11884
G1 X57.963 Y62.136 E45.14342
G1 X58.594 Y61.760 E45.16524
G1 X59.249 Y61.481 E45.18639
G1 X60.080 Y61.265 E45.21186
G1 X60.955 Y61.184 E45.23795
G1 X119.060 Y61.185 E46.96317
G1 X119.942 Y61.269 E46.98947
G1 X120.633 Y61.442 E47.01062
G1 X121.317 Y61.715 E47.03250
G1 X122.058 Y62.151 E47.05802
G1 X122.727 Y62.708 E47.08388
G1 X123.317 Y63.395 E47.11075
G1 X123.794 Y64.196 E47.13844
G1 X124.093 Y64.966 E47.16295
G1 X124.253 Y65.656 E47.18400
G1 X124.316 Y66.354 E47.20479
G1 X124.314 Y90.145 E47.91119
G1 X124.578 Y90.530 E47.92505
G1 X124.774 Y91.212 E47.94611
G1 X124.774 Y118.856 E48.76690
G1 X124.680 Y119.309 E48.78063
G1 X124.482 Y119.739 E48.79470
G1 X123.867 Y120.416 E48.82185
G1 X123.281 Y120.748 E48.84185
G1 X122.922 Y120.850 E48.85293
G1 X122.009 Y120.858 E48.88004
G1 X121.815 Y120.886 E48.88584
G1 X111.918 Y120.872 E49.17970
G1 X110.591 Y120.886 E49.21909
G1 X110.390 Y120.856 E49.22513
G1 X109.877 Y120.856 E49.24038
G1 X109.675 Y120.886 E49.24643
G1 X86.924 Y120.872 E49.92194
G1 X68.457 Y120.886 E50.47025
G1 X68.255 Y120.856 E50.47632
G1 X67.741 Y120.856 E50.49156
G1 X67.540 Y120.886 E50.49761
G1 X64.785 Y120.872 E50.57942
G1 X57.745 Y120.886 E50.78844
G1 X57.555 Y120.858 E50.79413
G1 X56.818 Y120.869 E50.81601
G1 X56.285 Y120.751 E50.83223
G1 X55.707 Y120.429 E50.85188
G1 X55.248 Y119.970 E50.87117
G1 X54.966 Y119.521 E50.88691
G1 X54.786 Y118.887 E50.90645
G1 X54.786 Y89.159 E51.78913
G1 X54.907 Y88.608 E51.80588
G1 X55.185 Y88.062 E51.82407
G1 X55.488 Y87.699 E51.83810
G1 X55.608 Y87.607 E51.84260
G1 X56.036 Y87.552 F7800.000
G1 F1200
G1 X56.038 Y66.425 E52.46988
G1 X56.094 Y65.752 E52.48992
G1 X56.277 Y64.980 E52.51348
G1 X56.574 Y64.260 E52.53660
G1 X57.003 Y63.563 E52.56090
G1 X57.560 Y62.927 E52.58602
G1 X58.158 Y62.436 E52.60900
G1 X58.746 Y62.083 E52.62933
G1 X59.377 Y61.815 E52.64970
G1 X60.154 Y61.614 E52.67354
G1 X60.963 Y61.541 E52.69764
G1 X119.052 Y61.542 E54.42238
G1 X119.869 Y61.618 E54.44674
G1 X120.534 Y61.785 E54.46711
G1 X121.171 Y62.041 E54.48748
G1 X121.863 Y62.451 E54.51138
G1 X122.467 Y62.953 E54.53468
G1 X123.019 Y63.592 E54.55975
G1 X123.467 Y64.341 E54.58566
G1 X123.749 Y65.060 E54.60858
G1 X123.898 Y65.701 E54.62815
G1 X123.960 Y66.378 E54.64833
G1 X123.957 Y90.262 E55.35748
G1 X124.245 Y90.664 E55.37216
G1 X124.417 Y91.239 E55.38998
G1 X124.417 Y118.836 E56.20938
G1 X124.336 Y119.212 E56.22080
G1 X124.171 Y119.561 E56.23224
G1 X123.626 Y120.152 E56.25612
G1 X123.130 Y120.424 E56.27293
G1 X122.853 Y120.499 E56.28142
G1 X121.979 Y120.500 E56.30737
G1 X121.803 Y120.528 E56.31266
G1 X120.489 Y120.515 E56.35169
G1 X119.163 Y120.528 E56.39106
G1 X119.061 Y120.513 E56.39413
G1 X118.958 Y120.528 E56.39721
G1 X117.620 Y120.515 E56.43694
G1 X117.530 Y120.528 E56.43965
G1 X116.204 Y120.515 E56.47902
G1 X114.878 Y120.528 E56.51838
G1 X114.776 Y120.513 E56.52146
G1 X114.673 Y120.528 E56.52454
G1 X113.335 Y120.515 E56.56426
G1 X113.245 Y120.528 E56.56698
G1 X111.919 Y120.515 E56.60634
G1 X110.604 Y120.528 E56.64538
G1 X110.420 Y120.499 E56.65092
G1 X109.847 Y120.499 E56.66793
G1 X109.663 Y120.528 E56.67347
G1 X106.908 Y120.515 E56.75528
G1 X106.817 Y120.528 E56.75799
G1 X105.492 Y120.515 E56.79735
G1 X104.166 Y120.528 E56.83672
G1 X104.063 Y120.513 E56.83980
G1 X103.961 Y120.528 E56.84288
G1 X102.623 Y120.515 E56.88260
G1 X102.532 Y120.528 E56.88531
G1 X101.194 Y120.515 E56.92504
G1 X101.104 Y120.528 E56.92775
G1 X99.766 Y120.515 E56.96748
G1 X99.676 Y120.528 E56.97019
