; generated by Slic3r Prusa Edition 1.38.5-prusa3d-win32 on 2018-01-28 at 16:32:38

; 

; external perimeters extrusion width = 0.68mm
; perimeters extrusion width = 0.68mm
; infill extrusion width = 0.68mm
; solid infill extrusion width = 0.68mm
; top infill extrusion width = 0.60mm
; first layer extrusion width = 0.60mm

M107
M190 S95 ; set bed temperature and wait for it to be reached
M104 S255 ; set temperature
G28 ; home all axes
G1 Z5 F5000 ; lift nozzle
; Filament gcode
M109 S255 ; set temperature and wait for it to be reached
G21 ; set units to millimeters
G90 ; use absolute coordinates
M82 ; use absolute distances for extrusion
G92 E0
G1 Z0.300 F7800.000
G1 E-6.00000 F2400.00000
G92 E0
G1 Z0.800 F7800.000
G1 X54.621 Y60.056 F7800.000
G1 Z0.300 F7800.000
G1 E6.00000 F2400.00000
G1 F1200
G1 X55.797 Y59.076 E6.10227
G1 X57.252 Y58.250 E6.21406
G1 X58.189 Y57.881 E6.28132
G1 X59.157 Y57.629 E6.34810
G1 X60.747 Y57.440 E6.45512
G1 X119.006 Y57.434 E10.34712
G1 X120.573 Y57.572 E10.45221
G1 X122.207 Y58.025 E10.56550
G1 X123.123 Y58.426 E10.63228
G1 X124.011 Y58.949 E10.70110
G1 X125.314 Y59.993 E10.81267
G1 X126.368 Y61.214 E10.92043
G1 X127.206 Y62.645 E11.03120
G1 X127.745 Y64.115 E11.13579
G1 X127.959 Y65.082 E11.20194
G1 X128.057 Y66.084 E11.26920
G1 X128.071 Y90.518 E12.90151
G1 X128.010 Y91.519 E12.96857
G1 X124.981 Y115.547 E14.58643
G1 X124.748 Y116.460 E14.64940
G1 X124.379 Y117.321 E14.71196
G1 X123.878 Y118.120 E14.77493
G1 X123.260 Y118.831 E14.83790
G1 X122.379 Y119.549 E14.91384
G1 X121.380 Y120.091 E14.98977
G1 X120.297 Y120.437 E15.06571
G1 X119.169 Y120.574 E15.14164
G1 X60.994 Y120.577 E19.02803
G1 X59.803 Y120.457 E19.10802
G1 X58.652 Y120.104 E19.18841
G1 X57.599 Y119.535 E19.26839
G1 X56.674 Y118.765 E19.34878
G1 X56.077 Y118.059 E19.41053
G1 X55.595 Y117.271 E19.47229
G1 X55.238 Y116.418 E19.53404
G1 X55.013 Y115.515 E19.59620
G1 X51.933 Y90.725 E21.26506
G1 X51.929 Y66.493 E22.88385
G1 X51.989 Y65.505 E22.94999
G1 X52.315 Y63.890 E23.06004
G1 X52.858 Y62.508 E23.15929
G1 X53.642 Y61.201 E23.26108
G1 X54.563 Y60.124 E23.35573
G1 X54.969 Y60.473 F7800.000
G1 F1200
G1 X56.109 Y59.512 E23.45534
G1 X57.477 Y58.736 E23.56040
G1 X58.363 Y58.387 E23.62405
G1 X59.285 Y58.149 E23.68765
G1 X60.785 Y57.974 E23.78855
G1 X119.006 Y57.970 E27.67799
G1 X120.474 Y58.099 E27.77645
G1 X122.015 Y58.526 E27.88330
G1 X122.882 Y58.904 E27.94651
G1 X123.728 Y59.403 E28.01209
G1 X124.954 Y60.390 E28.11727
G1 X125.939 Y61.535 E28.21811
G1 X126.726 Y62.885 E28.32251
G1 X127.229 Y64.260 E28.42030
G1 X127.432 Y65.181 E28.48332
G1 X127.524 Y66.152 E28.54853
G1 X127.536 Y90.517 E30.17623
G1 X127.477 Y91.463 E30.23951
G1 X124.456 Y115.438 E31.85389
G1 X124.244 Y116.277 E31.91169
G1 X123.902 Y117.078 E31.96988
G1 X123.437 Y117.815 E32.02807
G1 X122.863 Y118.470 E32.08625
G1 X122.064 Y119.116 E32.15489
G1 X121.154 Y119.605 E32.22391
G1 X120.169 Y119.916 E32.29293
G1 X119.143 Y120.039 E32.36195
G1 X60.994 Y120.041 E36.24662
G1 X59.903 Y119.931 E36.31989
G1 X58.849 Y119.606 E36.39355
G1 X57.881 Y119.079 E36.46721
G1 X57.037 Y118.370 E36.54086
G1 X56.496 Y117.724 E36.59711
G1 X56.060 Y117.004 E36.65337
G1 X55.738 Y116.226 E36.70962
G1 X55.538 Y115.408 E36.76587
G1 X52.468 Y90.700 E38.42915
G1 X52.464 Y66.494 E40.04628
G1 X52.521 Y65.573 E40.10792
G1 X52.830 Y64.039 E40.21246
G1 X53.342 Y62.737 E40.30589
G1 X54.081 Y61.507 E40.40179
G1 X54.910 Y60.541 E40.48682
G1 E34.48682 F2400.00000
G92 E0
G1 Z0.800 F7800.000
G1 X87.488 Y105.335 F7800.000
G1 Z0.300 F7800.000
G1 E6.00000 F2400.00000
G1 F1200
G1 X88.054 Y104.934 E6.04634
G1 X88.683 Y104.655 E6.09229
G1 X89.351 Y104.505 E6.13804
G1 X91.598 Y104.499 E6.28816
G1 X92.215 Y104.623 E6.33024
G1 X92.792 Y104.852 E6.37168
G1 X93.512 Y105.335 E6.42960
G1 X94.387 Y106.262 E6.51478
G1 X94.662 Y106.733 E6.55120
G1 X94.885 Y107.298 E6.59177
G1 X95.012 Y107.966 E6.63719
G1 X94.982 Y115.310 E7.12780
G1 X94.848 Y115.827 E7.16353
G1 X94.639 Y116.325 E7.19956
G1 X94.387 Y116.749 E7.23253
G1 X93.511 Y117.676 E7.31777
G1 X92.892 Y118.106 E7.36815
G1 X92.252 Y118.377 E7.41451
G1 X91.581 Y118.513 E7.46030
G1 X89.194 Y118.487 E7.61976
G1 X88.677 Y118.354 E7.65539
G1 X88.201 Y118.156 E7.68982
G1 X87.488 Y117.676 E7.74725
G1 X86.613 Y116.748 E7.83244
G1 X86.337 Y116.276 E7.86898
G1 X86.100 Y115.663 E7.91292
G1 X85.988 Y115.045 E7.95486
G1 X86.018 Y107.701 E8.44547
G1 X86.152 Y107.184 E8.48119
G1 X86.361 Y106.686 E8.51723
G1 X86.613 Y106.262 E8.55019
G1 X87.426 Y105.401 E8.62933
G1 X87.856 Y105.725 F7800.000
G1 F1200
G1 X88.337 Y105.390 E8.66853
G1 X88.871 Y105.157 E8.70740
G1 X89.436 Y105.034 E8.74604
G1 X91.522 Y105.029 E8.88541
G1 X92.042 Y105.131 E8.92080
G1 X92.568 Y105.339 E8.95861
G1 X93.145 Y105.726 E9.00502
G1 X93.942 Y106.563 E9.08224
G1 X94.172 Y106.950 E9.11232
G1 X94.378 Y107.471 E9.14973
G1 X94.476 Y107.990 E9.18501
G1 X94.455 Y115.211 E9.66741
G1 X94.346 Y115.641 E9.69709
G1 X94.169 Y116.068 E9.72792
G1 X93.942 Y116.448 E9.75749
G1 X93.144 Y117.285 E9.83478
G1 X92.614 Y117.648 E9.87767
G1 X92.074 Y117.871 E9.91671
G1 X91.505 Y117.983 E9.95544
G1 X89.294 Y117.960 E10.10318
G1 X88.864 Y117.851 E10.13279
G1 X88.431 Y117.672 E10.16412
G1 X87.855 Y117.285 E10.21045
G1 X87.058 Y116.448 E10.28767
G1 X86.828 Y116.062 E10.31769
G1 X86.609 Y115.493 E10.35838
G1 X86.524 Y115.022 E10.39037
G1 X86.545 Y107.800 E10.87284
G1 X86.654 Y107.369 E10.90253
G1 X86.831 Y106.943 E10.93336
G1 X87.058 Y106.563 E10.96293
G1 X87.794 Y105.791 E11.03421
G1 X88.221 Y106.118 F7800.000
G1 F1200
G1 X88.616 Y105.848 E11.06617
G1 X89.054 Y105.661 E11.09798
G1 X89.517 Y105.565 E11.12956
G1 X91.493 Y105.565 E11.26160
G1 X91.909 Y105.650 E11.28992
G1 X92.341 Y105.825 E11.32107
G1 X92.780 Y106.119 E11.35638
G1 X93.500 Y106.866 E11.42574
G1 X93.682 Y107.168 E11.44930
G1 X93.870 Y107.644 E11.48348
G1 X93.941 Y108.014 E11.50865
G1 X93.927 Y115.115 E11.98297
G1 X93.843 Y115.456 E12.00646
G1 X93.682 Y115.843 E12.03448
G1 X93.500 Y116.144 E12.05796
G1 X92.780 Y116.892 E12.12733
G1 X92.341 Y117.186 E12.16263
G1 X91.901 Y117.363 E12.19434
G1 X91.433 Y117.451 E12.22614
G1 X89.391 Y117.432 E12.36256
G1 X89.050 Y117.348 E12.38605
G1 X88.660 Y117.187 E12.41420
G1 X88.220 Y116.892 E12.44959
G1 X87.500 Y116.144 E12.51895
G1 X87.318 Y115.842 E12.54251
G1 X87.130 Y115.366 E12.57669
G1 X87.059 Y114.996 E12.60185
G1 X87.073 Y107.896 E13.07618
G1 X87.157 Y107.555 E13.09967
G1 X87.318 Y107.167 E13.12769
G1 X87.500 Y106.867 E13.15117
G1 X88.159 Y106.183 E13.21462
G1 X87.661 Y107.739 F7800.000
G1 F1200
G1 X87.804 Y107.393 E13.23964
G1 X87.939 Y107.174 E13.25682
G1 X88.583 Y106.514 E13.31847
G1 X88.889 Y106.309 E13.34307
G1 X89.232 Y106.167 E13.36785
G1 X89.593 Y106.095 E13.39245
G1 X91.461 Y106.100 E13.51725
G1 X91.769 Y106.167 E13.53826
G1 X92.111 Y106.309 E13.56298
G1 X92.417 Y106.514 E13.58758
G1 X93.061 Y107.174 E13.64923
G1 X93.195 Y107.392 E13.66634
G1 X93.351 Y107.778 E13.69413
G1 X93.405 Y108.043 E13.71220
G1 X93.399 Y115.022 E14.17845
G1 X93.339 Y115.272 E14.19559
G1 X93.196 Y115.618 E14.22061
G1 X93.061 Y115.837 E14.23779
G1 X92.417 Y116.497 E14.29944
G1 X92.111 Y116.702 E14.32404
G1 X91.768 Y116.844 E14.34882
G1 X91.407 Y116.916 E14.37339
G1 X89.484 Y116.904 E14.50190
G1 X89.234 Y116.845 E14.51905
G1 X88.889 Y116.702 E14.54396
G1 X88.583 Y116.497 E14.56855
G1 X87.939 Y115.837 E14.63020
G1 X87.805 Y115.619 E14.64731
G1 X87.649 Y115.233 E14.67510
G1 X87.595 Y114.968 E14.69317
G1 X87.601 Y107.989 E15.15942
G1 X87.640 Y107.827 E15.17055
G1 X88.165 Y107.921 F7800.000
G1 F1200
G1 X88.289 Y107.621 E15.19226
G1 X88.374 Y107.487 E15.20286
G1 X88.945 Y106.910 E15.25706
G1 X89.119 Y106.794 E15.27104
G1 X89.413 Y106.672 E15.29231
G1 X89.619 Y106.631 E15.30633
G1 X91.430 Y106.636 E15.42733
G1 X91.584 Y106.670 E15.43790
G1 X91.881 Y106.794 E15.45939
G1 X92.055 Y106.910 E15.47338
G1 X92.626 Y107.487 E15.52757
G1 X92.711 Y107.621 E15.53817
G1 X92.835 Y107.921 E15.55989
G1 X92.870 Y108.075 E15.57043
G1 X92.870 Y114.936 E16.02873
G1 X92.835 Y115.090 E16.03928
G1 X92.711 Y115.390 E16.06099
G1 X92.626 Y115.524 E16.07159
G1 X92.055 Y116.101 E16.12579
G1 X91.881 Y116.217 E16.13977
G1 X91.587 Y116.339 E16.16104
G1 X91.381 Y116.380 E16.17506
G1 X89.570 Y116.375 E16.29606
G1 X89.416 Y116.340 E16.30663
G1 X89.119 Y116.217 E16.32812
G1 X88.945 Y116.101 E16.34211
G1 X88.374 Y115.524 E16.39630
G1 X88.289 Y115.390 E16.40690
G1 X88.165 Y115.090 E16.42862
G1 X88.130 Y114.936 E16.43916
G1 X88.130 Y108.075 E16.89746
G1 X88.145 Y108.009 E16.90199
G1 X88.671 Y108.099 F7800.000
G1 F1200
G1 X88.802 Y107.809 E16.92322
G1 X89.304 Y107.308 E16.97062
G1 X89.645 Y107.166 E16.99529
G1 X91.407 Y107.177 E17.11296
G1 X91.696 Y107.308 E17.13419
G1 X92.198 Y107.809 E17.18159
G1 X92.329 Y108.099 E17.20282
G1 X92.339 Y114.860 E17.65451
G1 X92.198 Y115.201 E17.67918
G1 X91.696 Y115.703 E17.72658
G1 X91.407 Y115.834 E17.74781
G1 X89.593 Y115.834 E17.86893
G1 X89.304 Y115.703 E17.89016
G1 X88.802 Y115.201 E17.93756
G1 X88.671 Y114.912 E17.95879
G1 X88.661 Y108.188 E18.40799
G1 X89.237 Y108.132 F7800.000
G1 F1200
G1 X89.626 Y107.743 E18.44475
G1 X89.725 Y107.702 E18.45187
G1 X91.275 Y107.702 E18.55544
G1 X91.374 Y107.743 E18.56255
G1 X91.763 Y108.132 E18.59931
G1 X91.803 Y108.230 E18.60643
G1 X91.803 Y114.781 E19.04402
G1 X91.763 Y114.879 E19.05114
G1 X91.374 Y115.268 E19.08790
G1 X91.275 Y115.309 E19.09502
G1 X89.725 Y115.309 E19.19859
G1 X89.626 Y115.268 E19.20570
G1 X89.237 Y114.879 E19.24246
G1 X89.197 Y114.781 E19.24958
G1 X89.203 Y108.215 E19.68820
G1 X89.732 Y108.394 F7800.000
G1 F1200
G1 X89.889 Y108.238 E19.70302
G1 X91.111 Y108.238 E19.78464
G1 X91.268 Y108.394 E19.79946
G1 X91.268 Y114.616 E20.21512
G1 X91.111 Y114.773 E20.22994
G1 X89.889 Y114.773 E20.31157
G1 X89.732 Y114.616 E20.32639
G1 X89.732 Y108.484 E20.73603
G1 E14.73603 F2400.00000
G92 E0
G1 Z0.800 F7800.000
G1 X111.007 Y115.460 F7800.000
G1 Z0.300 F7800.000
G1 E6.00000 F2400.00000
G1 F1200
G1 X110.640 Y116.323 E6.06261
G1 X110.352 Y116.795 E6.09957
G1 X109.512 Y117.675 E6.18085
G1 X108.844 Y118.132 E6.23490
G1 X108.253 Y118.376 E6.27763
G1 X107.580 Y118.513 E6.32352
G1 X105.254 Y118.495 E6.47890
G1 X104.711 Y118.365 E6.51620
G1 X104.200 Y118.156 E6.55312
G1 X103.531 Y117.712 E6.60673
G1 X102.648 Y116.794 E6.69185
G1 X102.355 Y116.314 E6.72941
G1 X102.100 Y115.662 E6.77616
G1 X101.988 Y115.045 E6.81807
G1 X102.010 Y107.764 E7.30448
G1 X102.141 Y107.217 E7.34206
G1 X102.344 Y106.720 E7.37788
G1 X102.648 Y106.216 E7.41725
G1 X103.527 Y105.302 E7.50196
G1 X104.053 Y104.935 E7.54482
G1 X104.682 Y104.656 E7.59076
G1 X105.406 Y104.499 E7.64027
G1 X107.547 Y104.494 E7.78329
G1 X108.215 Y104.623 E7.82878
G1 X108.842 Y104.878 E7.87396
G1 X109.468 Y105.298 E7.92436
G1 X110.354 Y106.218 E8.00966
G1 X110.595 Y106.604 E8.04004
G1 X110.983 Y106.492 E8.06699
G1 X110.983 Y97.523 E8.66621
G1 X69.017 Y97.523 E11.46975
G1 X69.017 Y106.491 E12.06891
G1 X69.404 Y106.603 E12.09584
G1 X69.647 Y106.218 E12.12623
G1 X70.527 Y105.302 E12.21110
G1 X71.053 Y104.935 E12.25397
G1 X71.682 Y104.656 E12.29991
G1 X72.406 Y104.499 E12.34941
G1 X74.548 Y104.494 E12.49250
G1 X75.170 Y104.610 E12.53482
G1 X75.794 Y104.852 E12.57949
G1 X76.469 Y105.299 E12.63356
G1 X77.352 Y106.216 E12.71863
G1 X77.662 Y106.733 E12.75892
G1 X77.899 Y107.345 E12.80270
G1 X78.012 Y107.965 E12.84483
G1 X77.990 Y115.246 E13.33126
G1 X77.848 Y115.829 E13.37134
G1 X77.639 Y116.325 E13.40726
G1 X77.387 Y116.749 E13.44022
G1 X76.511 Y117.676 E13.52546
G1 X75.892 Y118.106 E13.57584
G1 X75.253 Y118.376 E13.62214
G1 X74.527 Y118.518 E13.67157
G1 X72.255 Y118.495 E13.82339
G1 X71.711 Y118.365 E13.86070
G1 X71.201 Y118.156 E13.89756
G1 X70.488 Y117.675 E13.95500
G1 X69.648 Y116.795 E14.03631
G1 X69.355 Y116.313 E14.07398
G1 X69.008 Y115.447 E14.13629
G1 X68.609 Y116.383 E14.20425
G1 X68.258 Y116.914 E14.24678
G1 X67.315 Y117.837 E14.33492
G1 X66.833 Y118.138 E14.37293
G1 X66.309 Y118.359 E14.41089
G1 X65.486 Y118.523 E14.46693
G1 X63.514 Y118.523 E14.59866
G1 X63.000 Y118.431 E14.63359
G1 X62.475 Y118.523 E14.66916
G1 X60.194 Y118.487 E14.82157
G1 X59.678 Y118.354 E14.85718
G1 X59.181 Y118.145 E14.89321
G1 X58.757 Y117.892 E14.92618
G1 X57.830 Y117.017 E15.01135
G1 X57.346 Y116.297 E15.06930
G1 X57.099 Y115.656 E15.11518
G1 X56.983 Y114.991 E15.16028
G1 X56.983 Y96.247 E16.41251
G1 X56.751 Y96.090 E16.43120
G1 X55.939 Y95.365 E16.50393
G1 X55.302 Y94.601 E16.57037
G1 X54.795 Y93.781 E16.63478
G1 X54.305 Y92.607 E16.71978
G1 X54.073 Y91.621 E16.78747
G1 X53.983 Y90.584 E16.85701
G1 X53.991 Y66.234 E18.48372
G1 X54.077 Y65.363 E18.54215
G1 X54.267 Y64.527 E18.59944
G1 X54.650 Y63.518 E18.67155
G1 X55.324 Y62.382 E18.75979
G1 X56.197 Y61.390 E18.84807
G1 X57.043 Y60.710 E18.92056
G1 X57.815 Y60.253 E18.98053
G1 X58.639 Y59.897 E19.04047
G1 X59.729 Y59.605 E19.11584
G1 X60.918 Y59.488 E19.19566
G1 X119.105 Y59.489 E23.08287
G1 X120.297 Y59.609 E23.16292
G1 X121.169 Y59.832 E23.22306
G1 X122.008 Y60.165 E23.28337
G1 X123.077 Y60.795 E23.36623
G1 X124.022 Y61.604 E23.44932
G1 X124.638 Y62.328 E23.51282
G1 X125.134 Y63.101 E23.57423
G1 X125.594 Y64.106 E23.64803
G1 X125.899 Y65.228 E23.72574
G1 X126.017 Y66.423 E23.80594
G1 X126.008 Y90.792 E25.43392
G1 X125.910 Y91.727 E25.49669
G1 X125.681 Y92.651 E25.56031
G1 X125.236 Y93.722 E25.63776
G1 X124.688 Y94.614 E25.70770
G1 X124.037 Y95.390 E25.77539
G1 X123.247 Y96.091 E25.84598
G1 X123.017 Y96.247 E25.86450
G1 X123.017 Y114.993 E27.11687
G1 X122.878 Y115.734 E27.16724
G1 X122.549 Y116.493 E27.22245
G1 X122.174 Y117.013 E27.26530
G1 X121.497 Y117.690 E27.32927
G1 X120.793 Y118.159 E27.38573
G1 X120.205 Y118.391 E27.42802
G1 X119.586 Y118.513 E27.47012
G1 X117.515 Y118.523 E27.60852
G1 X117.000 Y118.431 E27.64347
G1 X116.475 Y118.523 E27.67903
G1 X114.194 Y118.487 E27.83145
G1 X113.677 Y118.354 E27.86710
G1 X113.203 Y118.157 E27.90142
G1 X112.584 Y117.756 E27.95069
G1 X111.694 Y116.854 E28.03534
G1 X111.362 Y116.328 E28.07689
G1 X111.041 Y115.543 E28.13351
G1 X110.429 Y115.314 F7800.000
G1 F1200
G1 X110.346 Y115.641 E28.15610
G1 X110.169 Y116.068 E28.18693
G1 X109.942 Y116.448 E28.21650
G1 X109.144 Y117.285 E28.29379
G1 X108.614 Y117.648 E28.33668
G1 X108.074 Y117.871 E28.37572
G1 X107.505 Y117.983 E28.41445
G1 X105.294 Y117.960 E28.56219
G1 X104.864 Y117.851 E28.59180
G1 X104.431 Y117.672 E28.62313
G1 X103.855 Y117.285 E28.66946
G1 X103.058 Y116.448 E28.74668
G1 X102.828 Y116.062 E28.77670
G1 X102.609 Y115.493 E28.81739
G1 X102.524 Y115.022 E28.84938
G1 X102.545 Y107.800 E29.33185
G1 X102.654 Y107.369 E29.36154
G1 X102.831 Y106.943 E29.39237
G1 X103.058 Y106.563 E29.42194
G1 X103.856 Y105.725 E29.49923
G1 X104.337 Y105.390 E29.53843
G1 X104.871 Y105.157 E29.57730
G1 X105.436 Y105.034 E29.61594
G1 X107.522 Y105.029 E29.75531
G1 X108.042 Y105.131 E29.79070
G1 X108.568 Y105.339 E29.82851
G1 X109.145 Y105.726 E29.87492
G1 X109.942 Y106.563 E29.95214
G1 X110.172 Y106.950 E29.98221
G1 X110.378 Y107.471 E30.01963
G1 X110.476 Y107.990 E30.05491
G1 X110.451 Y115.226 E30.53836
G1 X109.909 Y115.186 F7800.000
G1 F1200
G1 X109.843 Y115.456 E30.55696
G1 X109.682 Y115.843 E30.58498
G1 X109.500 Y116.144 E30.60846
G1 X108.780 Y116.892 E30.67783
G1 X108.341 Y117.186 E30.71313
G1 X107.901 Y117.363 E30.74484
G1 X107.433 Y117.451 E30.77664
G1 X105.391 Y117.432 E30.91306
G1 X105.050 Y117.348 E30.93655
G1 X104.660 Y117.187 E30.96470
G1 X104.220 Y116.892 E31.00009
G1 X103.500 Y116.144 E31.06945
G1 X103.318 Y115.842 E31.09301
G1 X103.130 Y115.366 E31.12719
G1 X103.059 Y114.996 E31.15235
G1 X103.073 Y107.896 E31.62668
G1 X103.157 Y107.555 E31.65017
G1 X103.318 Y107.167 E31.67819
G1 X103.500 Y106.867 E31.70167
G1 X104.221 Y106.118 E31.77113
G1 X104.616 Y105.848 E31.80309
G1 X105.054 Y105.661 E31.83490
G1 X105.517 Y105.565 E31.86649
G1 X107.493 Y105.565 E31.99853
G1 X107.909 Y105.650 E32.02684
G1 X108.341 Y105.825 E32.05799
G1 X108.780 Y106.119 E32.09330
G1 X109.500 Y106.866 E32.16266
G1 X109.682 Y107.168 E32.18622
G1 X109.870 Y107.644 E32.22040
G1 X109.941 Y108.014 E32.24557
G1 X109.927 Y115.098 E32.71877
G1 X109.339 Y115.272 F7800.000
G1 F1200
